X:1
T:Title
%%score { 1 | 2 }
L:1/8
M:6/8
K:Bb
V:1 treble nm="Grand Piano"
V:2 bass 
V:1
 z3 z2[Q:1/4=100] [DF] | [DF]2 [DF] [B,D][CE][DF] | [EG]2 [EG] [DF]2 D | F2 F E2 E | %4
[M:5/8] F2 E D2 |[M:1/8] [DF] |[M:3/4] [DF]2 [DB] [Fd]2 [DB] | cB G [DF]2 [DF] | G2 B A2 c | %9
[M:5/8] [DB]3 z2 |] %10
V:2
 z3 z2 [B,,B,] | [B,,B,]2 [B,,B,] [B,,F,][B,,F,][B,,B,] | [E,B,]2 [E,B,] [B,,B,]2 [B,,F,B,] | %3
 [F,B,D]2 [F,B,D] [F,A,C]2 [F,A,C] |[M:5/8] [F,B,D]2 [F,C] [B,,F,B,]2 |[M:1/8] [B,,B,] | %6
[M:3/4] [B,,B,]2 [B,,F,] [B,,B,]2 [B,,F,] | [E,G,E][E,G,E] [E,B,E] [B,,B,]2 [B,,B,] | %8
 [E,B,E]2 [G,B,D] [F,CF]2 [F,A,E] |[M:5/8] [B,,B,]3 z2 |] %10

